material/.icons/material/home-city.svg

<svg xmlns="http://www.w3.org/2000/svg" viewBox="0 0 24 24"><path d="M0 21V10l7.5-5 7.5 5v11h-5v-7H5v7H0M24 2v19h-7V8.93l-1-.66V6h-2v.93l-4-2.66V2h14m-3 12h-2v2h2v-2m0-4h-2v2h2v-2m0-4h-2v2h2V6z"/></svg>

<?xml version="1.0" encoding="UTF-8"?><!DOCTYPE svg PUBLIC "-//W3C//DTD SVG 1.1//EN" "http://www.w3.org/Graphics/SVG/1.1/DTD/svg11.dtd"><svg xmlns="http://www.w3.org/2000/svg" xmlns:xlink="http://www.w3.org/1999/xlink" version="1.1" id="mdi-home-city" width="24" height="24" viewBox="0 0 24 24"><path d="M0,21V10L7.5,5L15,10V21H10V14H5V21H0M24,2V21H17V8.93L16,8.27V6H14V6.93L10,4.27V2H24M21,14H19V16H21V14M21,10H19V12H21V10M21,6H19V8H21V6Z" /></svg>
